modules/feathericon/icons/tiled.svg

<svg width="14" height="9" xmlns="http://www.w3.org/2000/svg"><path d="M10 5h4v4h-4V5zM5 5h4v4H5V5zM0 5h4v4H0V5zm10-5h4v4h-4V0zM5 0h4v4H5V0zM0 0h4v4H0V0z" fill="#000" fill-rule="evenodd"/></svg>

<?xml version="1.0" encoding="UTF-8"?>
<svg width="14px" height="9px" viewBox="0 0 14 9" version="1.1" xmlns="http://www.w3.org/2000/svg" xmlns:xlink="http://www.w3.org/1999/xlink">
    <!-- Generator: sketchtool 48.1 (47250) - http://www.bohemiancoding.com/sketch -->
    <title>tiled</title>
    <desc>Created with sketchtool.</desc>
    <defs></defs>
    <g id="text-edit" stroke="none" stroke-width="1" fill="none" fill-rule="evenodd">
        <g id="tiled" fill="#000000">
            <path d="M10,5 L14,5 L14,9 L10,9 L10,5 Z M5,5 L9,5 L9,9 L5,9 L5,5 Z M0,5 L4,5 L4,9 L0,9 L0,5 Z M10,0 L14,0 L14,4 L10,4 L10,0 Z M5,0 L9,0 L9,4 L5,4 L5,0 Z M0,0 L4,0 L4,4 L0,4 L0,0 Z" id="Shape"></path>
        </g>
    </g>
</svg>
